X:11902
T:Tenpenny Bit, The
R:Jig
B:Tuneworks Tunebook (https://www.tuneworks.co.uk/)
G:Tuneworks
Z:Jon Warbrick <jon.warbrick@googlemail.com>
M:6/8
L:1/8
K:D
|: F | "D"DFA dcd | "A"ecA cde | "D"fdf gfg | "A"ecA GFE | 
"D"DFA dcd | "A"ecA cde | "G"fga "A"gec | "D"edc d2 :|
|: d | "D"dfa agf | "A"efg efg | "D"fdf gfg | "A"ecA GFE | 
"D"DFA dcd | "A"ecA cde | "A"fga "A"gec | "D"edc d2 :|